bernoullicharts/pow_x_5_1__mean.svg

<?xml version="1.0" encoding="utf-8" standalone="no"?>
<!DOCTYPE svg PUBLIC "-//W3C//DTD SVG 1.1//EN"
  "http://www.w3.org/Graphics/SVG/1.1/DTD/svg11.dtd">
<!-- Created with matplotlib (https://matplotlib.org/) -->
<svg height="345.6pt" version="1.1" viewBox="0 0 460.8 345.6" width="460.8pt" xmlns="http://www.w3.org/2000/svg" xmlns:xlink="http://www.w3.org/1999/xlink">
 <defs>
  <style type="text/css">
*{stroke-linecap:butt;stroke-linejoin:round;}
  </style>
 </defs>
 <g id="figure_1">
  <g id="patch_1">
   <path d="M 0 345.6 
L 460.8 345.6 
L 460.8 0 
L 0 0 
z
" style="fill:#ffffff;"/>
  </g>
  <g id="axes_1">
   <g id="patch_2">
    <path d="M 57.6 307.584 
L 414.72 307.584 
L 414.72 41.472 
L 57.6 41.472 
z
" style="fill:#ffffff;"/>
   </g>
   <g id="matplotlib.axis_1">
    <g id="xtick_1">
     <g id="line2d_1">
      <defs>
       <path d="M 0 0 
L 0 3.5 
" id="m24fa1a8d20" style="stroke:#000000;stroke-width:0.8;"/>
      </defs>
      <g>
       <use style="stroke:#000000;stroke-width:0.8;" x="73.800255" xlink:href="#m24fa1a8d20" y="307.584"/>
      </g>
     </g>
     <g id="text_1">
      <text style="font-family:DejaVu Sans;font-size:10px;font-style:normal;font-weight:normal;text-anchor:middle;" transform="rotate(-0, 73.800255, 322.182437)" x="73.800255" y="322.182437">0.0</text>
     </g>
    </g>
    <g id="xtick_2">
     <g id="line2d_2">
      <g>
       <use style="stroke:#000000;stroke-width:0.8;" x="138.744153" xlink:href="#m24fa1a8d20" y="307.584"/>
      </g>
     </g>
     <g id="text_2">
      <text style="font-family:DejaVu Sans;font-size:10px;font-style:normal;font-weight:normal;text-anchor:middle;" transform="rotate(-0, 138.744153, 322.182437)" x="138.744153" y="322.182437">0.2</text>
     </g>
    </g>
    <g id="xtick_3">
     <g id="line2d_3">
      <g>
       <use style="stroke:#000000;stroke-width:0.8;" x="203.688051" xlink:href="#m24fa1a8d20" y="307.584"/>
      </g>
     </g>
     <g id="text_3">
      <text style="font-family:DejaVu Sans;font-size:10px;font-style:normal;font-weight:normal;text-anchor:middle;" transform="rotate(-0, 203.688051, 322.182437)" x="203.688051" y="322.182437">0.4</text>
     </g>
    </g>
    <g id="xtick_4">
     <g id="line2d_4">
      <g>
       <use style="stroke:#000000;stroke-width:0.8;" x="268.631949" xlink:href="#m24fa1a8d20" y="307.584"/>
      </g>
     </g>
     <g id="text_4">
      <text style="font-family:DejaVu Sans;font-size:10px;font-style:normal;font-weight:normal;text-anchor:middle;" transform="rotate(-0, 268.631949, 322.182437)" x="268.631949" y="322.182437">0.6</text>
     </g>
    </g>
    <g id="xtick_5">
     <g id="line2d_5">
      <g>
       <use style="stroke:#000000;stroke-width:0.8;" x="333.575847" xlink:href="#m24fa1a8d20" y="307.584"/>
      </g>
     </g>
     <g id="text_5">
      <text style="font-family:DejaVu Sans;font-size:10px;font-style:normal;font-weight:normal;text-anchor:middle;" transform="rotate(-0, 333.575847, 322.182437)" x="333.575847" y="322.182437">0.8</text>
     </g>
    </g>
    <g id="xtick_6">
     <g id="line2d_6">
      <g>
       <use style="stroke:#000000;stroke-width:0.8;" x="398.519745" xlink:href="#m24fa1a8d20" y="307.584"/>
      </g>
     </g>
     <g id="text_6">
      <text style="font-family:DejaVu Sans;font-size:10px;font-style:normal;font-weight:normal;text-anchor:middle;" transform="rotate(-0, 398.519745, 322.182437)" x="398.519745" y="322.182437">1.0</text>
     </g>
    </g>
    <g id="text_7">
     <text style="font-family:DejaVu Sans;font-size:10px;font-style:normal;font-weight:normal;text-anchor:middle;" transform="rotate(-0, 236.16, 335.860562)" x="236.16" y="335.860562">Input Coin's Heads Probability (λ)</text>
    </g>
   </g>
   <g id="matplotlib.axis_2">
    <g id="ytick_1">
     <g id="line2d_7">
      <defs>
       <path d="M 0 0 
L -3.5 0 
" id="mfc5bf849ce" style="stroke:#000000;stroke-width:0.8;"/>
      </defs>
      <g>
       <use style="stroke:#000000;stroke-width:0.8;" x="57.6" xlink:href="#mfc5bf849ce" y="295.488"/>
      </g>
     </g>
     <g id="text_8">
      <text style="font-family:DejaVu Sans;font-size:10px;font-style:normal;font-weight:normal;text-anchor:end;" transform="rotate(-0, 50.6, 299.287219)" x="50.6" y="299.287219">0.0</text>
     </g>
    </g>
    <g id="ytick_2">
     <g id="line2d_8">
      <g>
       <use style="stroke:#000000;stroke-width:0.8;" x="57.6" xlink:href="#mfc5bf849ce" y="247.079801"/>
      </g>
     </g>
     <g id="text_9">
      <text style="font-family:DejaVu Sans;font-size:10px;font-style:normal;font-weight:normal;text-anchor:end;" transform="rotate(-0, 50.6, 250.879019)" x="50.6" y="250.879019">0.2</text>
     </g>
    </g>
    <g id="ytick_3">
     <g id="line2d_9">
      <g>
       <use style="stroke:#000000;stroke-width:0.8;" x="57.6" xlink:href="#mfc5bf849ce" y="198.671601"/>
      </g>
     </g>
     <g id="text_10">
      <text style="font-family:DejaVu Sans;font-size:10px;font-style:normal;font-weight:normal;text-anchor:end;" transform="rotate(-0, 50.6, 202.47082)" x="50.6" y="202.47082">0.4</text>
     </g>
    </g>
    <g id="ytick_4">
     <g id="line2d_10">
      <g>
       <use style="stroke:#000000;stroke-width:0.8;" x="57.6" xlink:href="#mfc5bf849ce" y="150.263402"/>
      </g>
     </g>
     <g id="text_11">
      <text style="font-family:DejaVu Sans;font-size:10px;font-style:normal;font-weight:normal;text-anchor:end;" transform="rotate(-0, 50.6, 154.062621)" x="50.6" y="154.062621">0.6</text>
     </g>
    </g>
    <g id="ytick_5">
     <g id="line2d_11">
      <g>
       <use style="stroke:#000000;stroke-width:0.8;" x="57.6" xlink:href="#mfc5bf849ce" y="101.855203"/>
      </g>
     </g>
     <g id="text_12">
      <text style="font-family:DejaVu Sans;font-size:10px;font-style:normal;font-weight:normal;text-anchor:end;" transform="rotate(-0, 50.6, 105.654422)" x="50.6" y="105.654422">0.8</text>
     </g>
    </g>
    <g id="ytick_6">
     <g id="line2d_12">
      <g>
       <use style="stroke:#000000;stroke-width:0.8;" x="57.6" xlink:href="#mfc5bf849ce" y="53.447004"/>
      </g>
     </g>
     <g id="text_13">
      <text style="font-family:DejaVu Sans;font-size:10px;font-style:normal;font-weight:normal;text-anchor:end;" transform="rotate(-0, 50.6, 57.246222)" x="50.6" y="57.246222">1.0</text>
     </g>
    </g>
    <g id="text_14">
     <text style="font-family:DejaVu Sans;font-size:10px;font-style:normal;font-weight:normal;text-anchor:middle;" transform="rotate(-90, 28.617187, 174.528)" x="28.617187" y="174.528">Simulated Mean / Function Value</text>
    </g>
   </g>
   <g id="line2d_13">
    <path clip-path="url(#pca1bf9aacd)" d="M 73.832727 295.488 
L 77.112066 295.488 
L 80.391405 295.487999 
L 83.670744 295.487994 
L 86.950083 295.487974 
L 90.229421 295.48792 
L 93.50876 295.487801 
L 96.788099 295.48757 
L 100.067438 295.487162 
L 103.346777 295.48649 
L 106.626116 295.485445 
L 109.905455 295.483887 
L 113.184793 295.481647 
L 116.464132 295.478523 
L 119.743471 295.474277 
L 123.02281 295.468628 
L 126.302149 295.461256 
L 129.581488 295.451793 
L 132.860826 295.439823 
L 136.140165 295.424878 
L 139.419504 295.406435 
L 142.698843 295.383912 
L 145.978182 295.356668 
L 149.257521 295.323997 
L 152.53686 295.285124 
L 155.816198 295.239207 
L 159.095537 295.185328 
L 162.374876 295.122495 
L 165.654215 295.049634 
L 168.933554 294.965592 
L 172.212893 294.869127 
L 175.492231 294.758911 
L 178.77157 294.633523 
L 182.050909 294.491448 
L 185.330248 294.331074 
L 188.609587 294.150687 
L 191.888926 293.948469 
L 195.168264 293.722498 
L 198.447603 293.470738 
L 201.726942 293.191043 
L 205.006281 292.88115 
L 208.28562 292.538677 
L 211.564959 292.161121 
L 214.844298 291.745853 
L 218.123636 291.290114 
L 221.402975 290.791017 
L 224.682314 290.24554 
L 227.961653 289.650521 
L 231.240992 289.00266 
L 234.520331 288.298515 
L 237.799669 287.534494 
L 241.079008 286.706857 
L 244.358347 285.811712 
L 247.637686 284.845011 
L 250.917025 283.802547 
L 254.196364 282.679951 
L 257.475702 281.472691 
L 260.755041 280.176064 
L 264.03438 278.7852 
L 267.313719 277.295052 
L 270.593058 275.700396 
L 273.872397 273.99583 
L 277.151736 272.175769 
L 280.431074 270.234438 
L 283.710413 268.165878 
L 286.989752 265.963933 
L 290.269091 263.622256 
L 293.54843 261.134299 
L 296.827769 258.493312 
L 300.107107 255.692343 
L 303.386446 252.724232 
L 306.665785 249.581605 
L 309.945124 246.25688 
L 313.224463 242.742253 
L 316.503802 239.029704 
L 319.78314 235.110989 
L 323.062479 230.977637 
L 326.341818 226.620951 
L 329.621157 222.031999 
L 332.900496 217.201616 
L 336.179835 212.120397 
L 339.459174 206.7787 
L 342.738512 201.166633 
L 346.017851 195.274063 
L 349.29719 189.090601 
L 352.576529 182.605609 
L 355.855868 175.808192 
L 359.135207 168.687193 
L 362.414545 161.231195 
L 365.693884 153.428515 
L 368.973223 145.267202 
L 372.252562 136.735032 
L 375.531901 127.819507 
L 378.81124 118.507852 
L 382.090579 108.78701 
L 385.369917 98.643642 
L 388.649256 88.064121 
L 391.928595 77.034529 
L 395.207934 65.540657 
L 398.487273 53.568 
" style="fill:none;stroke:#1f77b4;stroke-linecap:square;stroke-width:1.5;"/>
   </g>
   <g id="line2d_14">
    <path clip-path="url(#pca1bf9aacd)" d="M 73.832727 295.488 
L 77.112066 295.488 
L 80.391405 295.488 
L 83.670744 295.488 
L 86.950083 295.488 
L 90.229421 295.488 
L 93.50876 295.488 
L 96.788099 295.488 
L 100.067438 295.488 
L 103.346777 295.488 
L 106.626116 295.488 
L 109.905455 295.488 
L 113.184793 295.488 
L 116.464132 295.488 
L 119.743471 295.488 
L 123.02281 295.488 
L 126.302149 295.488 
L 129.581488 295.488 
L 132.860826 295.003918 
L 136.140165 295.488 
L 139.419504 295.488 
L 142.698843 295.488 
L 145.978182 295.488 
L 149.257521 295.003918 
L 152.53686 295.488 
L 155.816198 295.488 
L 159.095537 295.488 
L 162.374876 295.488 
L 165.654215 295.488 
L 168.933554 294.519836 
L 172.212893 295.003918 
L 175.492231 294.035754 
L 178.77157 294.519836 
L 182.050909 294.519836 
L 185.330248 293.551672 
L 188.609587 293.551672 
L 191.888926 293.551672 
L 195.168264 294.035754 
L 198.447603 294.035754 
L 201.726942 293.551672 
L 205.006281 291.131262 
L 208.28562 293.06759 
L 211.564959 293.06759 
L 214.844298 291.615344 
L 218.123636 291.131262 
L 221.402975 290.163098 
L 224.682314 290.64718 
L 227.961653 288.22677 
L 231.240992 287.258606 
L 234.520331 285.80636 
L 237.799669 286.290442 
L 241.079008 285.80636 
L 244.358347 288.22677 
L 247.637686 282.901868 
L 250.917025 286.290442 
L 254.196364 283.38595 
L 257.475702 282.417786 
L 260.755041 277.576966 
L 264.03438 280.96554 
L 267.313719 283.870032 
L 270.593058 276.608802 
L 273.872397 271.767982 
L 277.151736 278.54513 
L 280.431074 275.640638 
L 283.710413 266.927162 
L 286.989752 264.02267 
L 290.269091 259.181851 
L 293.54843 263.538588 
L 296.827769 262.086343 
L 300.107107 259.665933 
L 303.386446 256.277359 
L 306.665785 254.341031 
L 309.945124 249.500211 
L 313.224463 237.398161 
L 316.503802 240.786735 
L 319.78314 236.429997 
L 323.062479 235.945915 
L 326.341818 234.493669 
L 329.621157 214.646307 
L 332.900496 224.327947 
L 336.179835 201.576093 
L 339.459174 211.741815 
L 342.738512 198.671601 
L 346.017851 198.187519 
L 349.29719 194.314864 
L 352.576529 181.728732 
L 355.855868 182.212814 
L 359.135207 162.365452 
L 362.414545 172.047092 
L 365.693884 156.556468 
L 368.973223 145.906664 
L 372.252562 134.288696 
L 375.531901 117.345827 
L 378.81124 120.250319 
L 382.090579 110.084597 
L 385.369917 91.689481 
L 388.649256 88.784989 
L 391.928595 79.587431 
L 395.207934 64.096808 
L 398.487273 54.415168 
" style="fill:none;stroke:#ff7f0e;stroke-linecap:square;stroke-width:1.5;"/>
   </g>
   <g id="patch_3">
    <path d="M 57.6 307.584 
L 57.6 41.472 
" style="fill:none;stroke:#000000;stroke-linecap:square;stroke-linejoin:miter;stroke-width:0.8;"/>
   </g>
   <g id="patch_4">
    <path d="M 414.72 307.584 
L 414.72 41.472 
" style="fill:none;stroke:#000000;stroke-linecap:square;stroke-linejoin:miter;stroke-width:0.8;"/>
   </g>
   <g id="patch_5">
    <path d="M 57.6 307.584 
L 414.72 307.584 
" style="fill:none;stroke:#000000;stroke-linecap:square;stroke-linejoin:miter;stroke-width:0.8;"/>
   </g>
   <g id="patch_6">
    <path d="M 57.6 41.472 
L 414.72 41.472 
" style="fill:none;stroke:#000000;stroke-linecap:square;stroke-linejoin:miter;stroke-width:0.8;"/>
   </g>
   <g id="text_15">
    <text style="font-family:DejaVu Sans;font-size:12px;font-style:normal;font-weight:normal;text-anchor:middle;" transform="rotate(-0, 236.16, 35.472)" x="236.16" y="35.472">Expected Value in pow(x,5/1) Algorithm</text>
   </g>
   <g id="legend_1">
    <g id="patch_7">
     <path d="M 64.6 78.82825 
L 247.192187 78.82825 
Q 249.192187 78.82825 249.192187 76.82825 
L 249.192187 48.472 
Q 249.192187 46.472 247.192187 46.472 
L 64.6 46.472 
Q 62.6 46.472 62.6 48.472 
L 62.6 76.82825 
Q 62.6 78.82825 64.6 78.82825 
z
" style="fill:#ffffff;opacity:0.8;stroke:#cccccc;stroke-linejoin:miter;"/>
    </g>
    <g id="line2d_15">
     <path d="M 66.6 54.570437 
L 86.6 54.570437 
" style="fill:none;stroke:#1f77b4;stroke-linecap:square;stroke-width:1.5;"/>
    </g>
    <g id="line2d_16"/>
    <g id="text_16">
     <text style="font-family:DejaVu Sans;font-size:10px;font-style:normal;font-weight:normal;text-anchor:start;" transform="rotate(-0, 94.6, 58.070437)" x="94.6" y="58.070437">pow(x,5/1)</text>
    </g>
    <g id="line2d_17">
     <path d="M 66.6 69.248562 
L 86.6 69.248562 
" style="fill:none;stroke:#ff7f0e;stroke-linecap:square;stroke-width:1.5;"/>
    </g>
    <g id="line2d_18"/>
    <g id="text_17">
     <text style="font-family:DejaVu Sans;font-size:10px;font-style:normal;font-weight:normal;text-anchor:start;" transform="rotate(-0, 94.6, 72.748562)" x="94.6" y="72.748562">Simulated Mean of pow(x,5/1)</text>
    </g>
   </g>
  </g>
 </g>
 <defs>
  <clipPath id="pca1bf9aacd">
   <rect height="266.112" width="357.12" x="57.6" y="41.472"/>
  </clipPath>
 </defs>
</svg>

<svg height="460.8" viewBox="0 0 460.8 345.6" width="614.4" xmlns="http://www.w3.org/2000/svg" xmlns:xlink="http://www.w3.org/1999/xlink"><defs><style>*{stroke-linecap:butt;stroke-linejoin:round}</style></defs><g id="figure_1"><path d="M0 345.6h460.8V0H0z" fill="#fff" id="patch_1"/><g id="axes_1"><path d="M57.6 307.584h357.12V41.472H57.6z" fill="#fff" id="patch_2"/><g id="matplotlib.axis_1"><g id="xtick_1"><g id="line2d_1"><defs><path d="M0 0v3.5" id="m24fa1a8d20" stroke="#000" stroke-width=".8"/></defs><use x="73.8" xlink:href="#m24fa1a8d20" y="307.584" stroke="#000" stroke-width=".8"/></g><text x="73.8" y="322.182" font-family="DejaVu Sans" font-size="10" font-weight="400" text-anchor="middle" id="text_1">0.0</text></g><g id="xtick_2"><use x="138.744" xlink:href="#m24fa1a8d20" y="307.584" stroke="#000" stroke-width=".8" id="line2d_2"/><text x="138.744" y="322.182" font-family="DejaVu Sans" font-size="10" font-weight="400" text-anchor="middle" id="text_2">0.2</text></g><g id="xtick_3"><use x="203.688" xlink:href="#m24fa1a8d20" y="307.584" stroke="#000" stroke-width=".8" id="line2d_3"/><text x="203.688" y="322.182" font-family="DejaVu Sans" font-size="10" font-weight="400" text-anchor="middle" id="text_3">0.4</text></g><g id="xtick_4"><use x="268.632" xlink:href="#m24fa1a8d20" y="307.584" stroke="#000" stroke-width=".8" id="line2d_4"/><text x="268.632" y="322.182" font-family="DejaVu Sans" font-size="10" font-weight="400" text-anchor="middle" id="text_4">0.6</text></g><g id="xtick_5"><use x="333.576" xlink:href="#m24fa1a8d20" y="307.584" stroke="#000" stroke-width=".8" id="line2d_5"/><text x="333.576" y="322.182" font-family="DejaVu Sans" font-size="10" font-weight="400" text-anchor="middle" id="text_5">0.8</text></g><g id="xtick_6"><use x="398.52" xlink:href="#m24fa1a8d20" y="307.584" stroke="#000" stroke-width=".8" id="line2d_6"/><text x="398.52" y="322.182" font-family="DejaVu Sans" font-size="10" font-weight="400" text-anchor="middle" id="text_6">1.0</text></g><text x="236.16" y="335.861" font-family="DejaVu Sans" font-size="10" font-weight="400" text-anchor="middle" id="text_7">Input Coin&apos;s Heads Probability (λ)</text></g><g id="matplotlib.axis_2"><g id="ytick_1"><g id="line2d_7"><defs><path d="M0 0h-3.5" id="mfc5bf849ce" stroke="#000" stroke-width=".8"/></defs><use x="57.6" xlink:href="#mfc5bf849ce" y="295.488" stroke="#000" stroke-width=".8"/></g><text x="50.6" y="299.287" font-family="DejaVu Sans" font-size="10" font-weight="400" text-anchor="end" id="text_8">0.0</text></g><g id="ytick_2"><use x="57.6" xlink:href="#mfc5bf849ce" y="247.08" stroke="#000" stroke-width=".8" id="line2d_8"/><text x="50.6" y="250.879" font-family="DejaVu Sans" font-size="10" font-weight="400" text-anchor="end" id="text_9">0.2</text></g><g id="ytick_3"><use x="57.6" xlink:href="#mfc5bf849ce" y="198.672" stroke="#000" stroke-width=".8" id="line2d_9"/><text x="50.6" y="202.471" font-family="DejaVu Sans" font-size="10" font-weight="400" text-anchor="end" id="text_10">0.4</text></g><g id="ytick_4"><use x="57.6" xlink:href="#mfc5bf849ce" y="150.263" stroke="#000" stroke-width=".8" id="line2d_10"/><text x="50.6" y="154.063" font-family="DejaVu Sans" font-size="10" font-weight="400" text-anchor="end" id="text_11">0.6</text></g><g id="ytick_5"><use x="57.6" xlink:href="#mfc5bf849ce" y="101.855" stroke="#000" stroke-width=".8" id="line2d_11"/><text x="50.6" y="105.654" font-family="DejaVu Sans" font-size="10" font-weight="400" text-anchor="end" id="text_12">0.8</text></g><g id="ytick_6"><use x="57.6" xlink:href="#mfc5bf849ce" y="53.447" stroke="#000" stroke-width=".8" id="line2d_12"/><text x="50.6" y="57.246" font-family="DejaVu Sans" font-size="10" font-weight="400" text-anchor="end" id="text_13">1.0</text></g><text transform="rotate(-90 28.617 174.528)" x="28.617" y="174.528" font-family="DejaVu Sans" font-size="10" font-weight="400" text-anchor="middle" id="text_14">Simulated Mean / Function Value</text></g><path clip-path="url(#pca1bf9aacd)" d="M73.833 295.488H100.067l3.28-.002h3.28l3.278-.002 3.28-.002 3.28-.003 3.278-.005 3.28-.005 3.28-.008 3.278-.01 3.28-.011 3.28-.015 3.279-.019 3.279-.022 3.28-.027 3.279-.033 3.279-.039 3.28-.046 3.279-.054 3.279-.063 3.28-.072 3.279-.084 3.279-.097 3.28-.11 3.279-.125 3.279-.143 3.28-.16 3.279-.18 3.279-.203 3.28-.226 3.279-.251 3.279-.28 3.28-.31 3.279-.342 3.279-.378 3.28-.415 3.279-.456 3.279-.499 3.28-.545 3.279-.595 3.279-.648 3.28-.704 3.279-.765 3.279-.827 3.28-.895 3.279-.967 3.279-1.042 3.28-1.123 3.279-1.207 3.279-1.297 3.28-1.39 3.279-1.49 3.28-1.596 3.278-1.704 3.28-1.82 3.28-1.942 3.278-2.068 3.28-2.202 3.28-2.342 3.278-2.488 3.28-2.64 3.28-2.802 3.278-2.968 3.28-3.142 3.28-3.325 3.278-3.515 3.28-3.712 3.28-3.919 3.278-4.133 3.28-4.357 3.28-4.589 3.278-4.83 3.28-5.082 3.28-5.341 3.279-5.612 3.279-5.893 3.28-6.183 3.279-6.485 3.279-6.798 3.28-7.12 3.279-7.457 3.279-7.802 3.28-8.162 3.279-8.532 3.279-8.915 3.28-9.312 3.279-9.721 3.279-10.143 3.28-10.58 3.279-11.03 3.279-11.493 3.28-11.973" fill="none" stroke="#1f77b4" stroke-linecap="square" stroke-width="1.5" id="line2d_13"/><path clip-path="url(#pca1bf9aacd)" d="M73.833 295.488h55.748l3.28-.484 3.28.484h9.838l3.279-.484 3.279.484H165.655l3.279-.968 3.279.484 3.28-.968 3.279.484h3.279l3.28-.968h6.558l3.28.484h3.279l3.279-.484 3.28-2.42 3.279 1.936h3.279l3.28-1.453 3.279-.484 3.279-.968 3.28.484 3.279-2.42 3.279-.968 3.28-1.453 3.279.484 3.279-.484 3.28 2.42 3.279-5.324 3.279 3.388 3.28-2.904 3.279-.968 3.279-4.841 3.28 3.389 3.279 2.904 3.28-7.261 3.278-4.841 3.28 6.777 3.28-2.904 3.278-8.714 3.28-2.904 3.28-4.841 3.278 4.357 3.28-1.453 3.28-2.42 3.278-3.389 3.28-1.936 3.28-4.84 3.278-12.103 3.28 3.389 3.28-4.357 3.278-.484 3.28-1.452 3.28-19.848 3.278 9.682 3.28-22.752 3.28 10.166 3.279-13.07 3.279-.484 3.28-3.873 3.279-12.586 3.279.484 3.28-19.848 3.279 9.682 3.279-15.49 3.28-10.65 3.279-11.618 3.279-16.943 3.28 2.904 3.279-10.165 3.279-18.396 3.28-2.904 3.279-9.198 3.279-15.49 3.28-9.682" fill="none" stroke="#ff7f0e" stroke-linecap="square" stroke-width="1.5" id="line2d_14"/><path d="M57.6 307.584V41.472" fill="none" stroke="#000" stroke-linecap="square" stroke-width=".8" id="patch_3"/><path d="M414.72 307.584V41.472" fill="none" stroke="#000" stroke-linecap="square" stroke-width=".8" id="patch_4"/><path d="M57.6 307.584h357.12" fill="none" stroke="#000" stroke-linecap="square" stroke-width=".8" id="patch_5"/><path d="M57.6 41.472h357.12" fill="none" stroke="#000" stroke-linecap="square" stroke-width=".8" id="patch_6"/><text x="236.16" y="35.472" font-family="DejaVu Sans" font-size="12" font-weight="400" text-anchor="middle" id="text_15">Expected Value in pow(x,5/1) Algorithm</text><g id="legend_1"><path d="M64.6 78.828h182.592q2 0 2-2V48.472q0-2-2-2H64.6q-2 0-2 2v28.356q0 2 2 2z" fill="#fff" opacity=".8" stroke="#ccc" id="patch_7"/><path d="M66.6 54.57h20" fill="none" stroke="#1f77b4" stroke-linecap="square" stroke-width="1.5" id="line2d_15"/><text x="94.6" y="58.07" font-family="DejaVu Sans" font-size="10" font-weight="400" id="text_16">pow(x,5/1)</text><path d="M66.6 69.249h20" fill="none" stroke="#ff7f0e" stroke-linecap="square" stroke-width="1.5" id="line2d_17"/><text x="94.6" y="72.749" font-family="DejaVu Sans" font-size="10" font-weight="400" id="text_17">Simulated Mean of pow(x,5/1)</text></g></g></g><defs><clipPath id="pca1bf9aacd"><path d="M57.6 41.472h357.12v266.112H57.6z"/></clipPath></defs></svg>
